src/assets/protocols/webera.svg

<svg width="229" height="229" viewBox="0 0 229 229" fill="none" xmlns="http://www.w3.org/2000/svg">
<g clip-path="url(#clip0_20887_55997)">
<path d="M228.135 0.5H0.527344V228.107H228.135V0.5Z" fill="#7EC7E8"/>
<path opacity="0.33" d="M208.872 145.852C208.605 145.852 208.342 145.87 208.079 145.892C208.105 145.554 208.123 145.215 208.123 144.87C208.123 137.887 202.463 132.227 195.48 132.227C190.995 132.227 187.059 134.563 184.814 138.084C184.361 138.035 183.901 138.008 183.436 138.008C176.901 138.008 171.525 142.962 170.856 149.318C170.703 149.31 170.549 149.304 170.394 149.304C165.286 149.304 161.145 153.446 161.145 158.554C161.145 163.663 165.286 167.804 170.394 167.804C172.127 167.804 173.743 167.319 175.131 166.488C177.543 168.287 180.89 169.293 184.519 169.053C188.328 168.802 191.647 167.229 193.799 164.956C195.481 166.708 197.844 167.803 200.466 167.803C203.413 167.803 206.033 166.419 207.726 164.271C208.103 164.318 208.483 164.35 208.872 164.35C213.981 164.35 218.122 160.209 218.122 155.1C218.122 149.992 213.981 145.851 208.872 145.851V145.852Z" fill="white"/>
<path opacity="0.46" d="M135.77 58.8554C135.77 55.3527 132.931 52.5134 129.428 52.5134C128.999 52.5134 128.583 52.5566 128.179 52.6374C126.689 50.1612 124.007 48.4894 120.924 48.42C119.612 45.2746 116.51 43.0635 112.888 43.0635C109.267 43.0635 106.15 45.2883 104.845 48.4462C100.702 48.7808 97.3798 52.0115 96.9098 56.1163C94.4848 57.6617 92.8711 60.3678 92.8711 63.4564C92.8711 68.2633 96.7676 72.1598 101.576 72.1598C102.621 72.1598 103.621 71.9652 104.55 71.6272C105.682 72.6753 107.192 73.3205 108.854 73.3205C110.079 73.3205 111.219 72.9677 112.189 72.3657C113.591 73.3319 115.287 73.8998 117.118 73.8998C119.687 73.8998 121.988 72.78 123.581 71.0104C124.356 71.3472 125.21 71.5373 126.109 71.5373C129.611 71.5373 132.451 68.698 132.451 65.1952C132.451 64.9437 132.431 64.6968 132.404 64.4533C134.406 63.3869 135.771 61.2805 135.771 58.8543L135.77 58.8554Z" fill="white"/>
<path opacity="0.33" d="M35.801 136.125C35.7043 136.125 35.6098 136.131 35.5165 136.139C35.5256 136.018 35.5324 135.896 35.5324 135.772C35.5324 133.261 33.4977 131.227 30.9873 131.227C29.3747 131.227 27.9602 132.066 27.1533 133.332C26.9906 133.314 26.8256 133.305 26.6583 133.305C24.3095 133.305 22.376 135.086 22.1359 137.371C22.0813 137.368 22.0255 137.366 21.9698 137.366C20.133 137.366 18.6445 138.855 18.6445 140.691C18.6445 142.528 20.133 144.017 21.9698 144.017C22.5934 144.017 23.1738 143.842 23.6722 143.544C24.5394 144.191 25.7422 144.552 27.0475 144.466C28.4165 144.375 29.6103 143.811 30.3841 142.993C30.9895 143.623 31.8385 144.017 32.7807 144.017C33.8402 144.017 34.7825 143.519 35.3913 142.746C35.5267 142.764 35.6633 142.775 35.8033 142.775C37.64 142.775 39.1285 141.286 39.1285 139.45C39.1285 137.613 37.64 136.125 35.8033 136.125H35.801Z" fill="white"/>
<path d="M65.3654 116.542C38.782 120.346 35.9704 119.777 1.38993 103.077C-35.3688 73.9211 -82.7687 27.6594 -82.7687 27.6594L-24.9598 -32.05L29.7421 -70.2148L81.4624 -0.533116C102.026 31.0531 104.55 41.3253 106.995 53.7731C115.833 101.322 78.8356 113.86 65.3666 116.541L65.3654 116.542Z" fill="#3C3C3C"/>
<path d="M28.9264 34.298C28.9264 34.298 17.3135 41.1232 17.1369 53.3007C16.9602 65.4781 23.5059 80.953 45.8205 77.5949C64.9355 74.586 68.4793 50.3975 60.0631 39.5823C45.7936 21.2447 28.9264 34.298 28.9264 34.298Z" fill="#000004"/>
<path d="M30.5721 37.0314C30.5721 37.0314 20.5769 42.9061 20.4247 53.3878C20.2725 63.8695 25.9071 77.1883 45.1137 74.2986C61.5663 71.7092 64.6157 50.8894 57.3723 41.5808C45.0903 25.797 30.5721 37.0325 30.5721 37.0325L30.5721 37.0314Z" fill="#877F72"/>
<path d="M78.7931 41.9853C78.7931 41.9853 74.6717 44.4069 74.609 48.7282C74.5464 53.0494 76.869 58.5407 84.7879 57.3485C91.5708 56.2802 92.8282 47.6969 89.8415 43.8597C84.7778 37.3528 78.7931 41.9841 78.7931 41.9841L78.7931 41.9853Z" fill="#000004"/>
<path d="M79.7913 43.6351C79.7913 43.6351 76.6465 45.4834 76.5985 48.7804C76.5505 52.0774 78.3231 56.2683 84.3653 55.3588C89.5412 54.5435 90.5011 47.9941 88.222 45.065C84.3584 40.0999 79.7902 43.6339 79.7902 43.6339L79.7913 43.6351Z" fill="#877F72"/>
<path d="M74.0626 74.621C74.0626 74.621 69.9412 77.0426 69.8786 81.3639C69.8159 85.6852 72.1385 91.1764 80.0574 89.9842C86.8404 88.916 88.0978 80.3327 85.1111 76.4954C80.0473 69.9885 74.0626 74.6199 74.0626 74.6199L74.0626 74.621Z" fill="#000004"/>
<path d="M75.0569 76.2708C75.0569 76.2708 71.9121 78.1191 71.8641 81.4161C71.8162 84.7131 73.5887 88.904 79.6309 87.9945C84.8068 87.1792 85.7667 80.6298 83.4876 77.7008C79.624 72.7356 75.0558 76.2696 75.0558 76.2696L75.0569 76.2708Z" fill="#877F72"/>
<path d="M37.8282 88.5517C37.8282 88.5517 33.7068 90.9733 33.6442 95.2946C33.5815 99.6158 35.9042 105.107 43.823 103.915C50.606 102.847 51.8634 94.2633 48.8767 90.4261C43.8129 83.9192 37.8283 88.5505 37.8283 88.5505L37.8282 88.5517Z" fill="#000004"/>
<path d="M38.8264 90.2015C38.8264 90.2015 35.6817 92.0498 35.6337 95.3468C35.5857 98.6438 37.3583 102.835 43.4004 101.925C48.5764 101.11 49.5362 94.5605 47.2572 91.6314C43.3936 86.6663 38.8253 90.2003 38.8253 90.2003L38.8264 90.2015Z" fill="#877F72"/>
<path d="M103.498 28.9979C130.651 78.2821 97.7018 114.248 69.6792 119.456C7.16725 131.073 -33.0037 74.7493 -86.0687 31.055L-82.7333 27.4562C-82.7333 27.4562 -41.168 66.5289 2.62981 100.526C22.5377 115.979 40.4653 117.225 67.5307 114.777C77.7473 113.279 115.836 101.322 106.998 53.7745C102.961 27.8281 63.9261 -22.1386 29.6109 -70.2207L32.8613 -72.7047C32.8613 -72.7047 93.0118 6.47435 103.498 28.9979Z" fill="#000100"/>
<path d="M190.598 230.82L195.507 293.275L34.6008 286.815L42.6638 225.908C62.9233 116.421 107.599 119.76 117.94 119.223C178.265 117.819 190.598 230.82 190.598 230.82Z" fill="#9E6D4C"/>
<path d="M108.455 208.921C108.455 208.921 120.79 214.334 130.763 207.342C140.735 200.351 149.442 185.981 133.647 169.863C120.011 156.135 98.3317 167.434 94.4972 180.591C87.995 202.898 108.455 208.921 108.455 208.921Z" fill="#000004"/>
<path d="M109.707 205.986C109.707 205.986 120.323 210.645 128.907 204.627C137.49 198.61 144.985 186.241 131.39 172.368C119.653 160.551 100.993 170.277 97.6921 181.601C92.0958 200.801 109.707 205.985 109.707 205.985L109.707 205.986Z" fill="#877F72"/>
<path d="M85.4699 164.002C85.4699 164.002 89.8468 165.923 93.386 163.442C96.9253 160.961 100.014 155.861 94.4095 150.143C89.5704 145.271 81.878 149.28 80.5171 153.949C78.2105 161.864 85.4699 164.002 85.4699 164.002Z" fill="#000004"/>
<path d="M86.226 162.232C86.226 162.232 89.5658 163.698 92.2669 161.805C94.9668 159.913 97.3254 156.021 93.0479 151.657C89.3558 147.939 83.4848 150.999 82.4465 154.561C80.6861 160.601 86.226 162.232 86.226 162.232Z" fill="#877F72"/>
<path d="M114.685 148.713C114.685 148.713 119.062 150.634 122.601 148.153C126.14 145.672 129.229 140.572 123.624 134.854C118.785 129.982 111.093 133.991 109.732 138.66C107.425 146.575 114.685 148.713 114.685 148.713Z" fill="#000004"/>
<path d="M115.437 146.943C115.437 146.943 118.777 148.409 121.478 146.516C124.178 144.624 126.536 140.732 122.259 136.367C118.567 132.65 112.696 135.709 111.657 139.272C109.897 145.312 115.437 146.943 115.437 146.943Z" fill="#877F72"/>
<path d="M147.2 169.916C147.2 169.916 151.577 171.837 155.117 169.356C158.656 166.875 161.745 161.775 156.14 156.057C151.301 151.186 143.608 155.194 142.248 159.863C139.941 167.778 147.2 169.916 147.2 169.916Z" fill="#000004"/>
<path d="M147.953 168.145C147.953 168.145 151.292 169.611 153.993 167.718C156.693 165.826 159.052 161.934 154.774 157.57C151.082 153.852 145.211 156.912 144.173 160.474C142.413 166.514 147.953 168.145 147.953 168.145Z" fill="#877F72"/>
<path d="M195.954 230.998C198.666 268.572 199.399 293.217 199.399 293.217L195.444 293.086L190.598 230.82C190.598 230.82 178.265 117.819 117.939 119.223C107.599 119.76 62.9229 116.421 42.6634 225.908L34.8208 286.674L28.7607 286.472L37.6976 225.743C37.6976 225.743 51.9586 130.389 104.256 117.888C107.383 117.141 110.645 116.69 114.049 116.573C120.422 116.468 128.237 116.104 136.686 118.965C156.017 125.511 185.433 154.411 195.954 230.998Z" fill="#060000"/>
<path d="M143.389 76.1125C118.269 41.641 174.656 -32.478 205.704 -65.526L197.54 -71.5569C168.482 -37.0988 113.765 23.8664 131.258 69.0859C150.235 113.779 193.365 113.137 229.158 103.728C264.951 94.3182 300.498 31.0269 313.797 0.557407C313.231 0.250635 311.304 -0.677348 308.12 -1.93503C269.15 70.2088 251.952 85.4772 239.353 91.9707C173.978 118.023 156.317 94.3973 143.389 76.1125Z" fill="black"/>
<path d="M257.362 -32.6596L307.72 -1.85066C307.72 -1.85066 271.02 74.4556 236.386 94.7525C222.9 101.792 195.088 110.863 164.302 98.4549C153.435 93.0842 121.329 69.7498 137.543 27.2482C143.489 12.7575 150.586 -1.11779 161.746 -16.2988L202.033 -67.3755L257.362 -32.6596Z" fill="#EFF2E1"/>
<path d="M220.787 27.2762C220.787 27.2762 213.962 15.6633 201.785 15.4867C189.607 15.31 174.132 21.8557 177.49 44.1703C180.499 63.2852 204.688 66.8291 215.503 58.4128C233.841 44.1434 220.787 27.2762 220.787 27.2762Z" fill="#000004"/>
<path d="M218.053 28.9221C218.053 28.9221 212.178 18.9269 201.697 18.7746C191.215 18.6224 177.896 24.257 180.786 43.4636C183.375 59.9162 204.195 62.9656 213.504 55.7222C229.287 43.4402 218.052 28.922 218.052 28.922L218.053 28.9221Z" fill="#877F72"/>
<path d="M213.101 77.1457C213.101 77.1457 210.68 73.0243 206.358 72.9617C202.037 72.899 196.546 75.2216 197.738 83.1405C198.806 89.9235 207.39 91.1809 211.227 88.1941C217.734 83.1304 213.102 77.1457 213.102 77.1457L213.101 77.1457Z" fill="#000004"/>
<path d="M211.448 78.1389C211.448 78.1389 209.599 74.9941 206.302 74.9462C203.005 74.8982 198.814 76.6708 199.724 82.7129C200.539 87.8888 207.089 88.8487 210.018 86.5696C214.983 82.706 211.449 78.1378 211.449 78.1378L211.448 78.1389Z" fill="#877F72"/>
<path d="M180.468 72.4182C180.468 72.4182 178.047 68.2968 173.726 68.2341C169.404 68.1715 163.913 70.4941 165.105 78.413C166.173 85.1959 174.757 86.4533 178.594 83.4666C185.101 78.4029 180.47 72.4182 180.47 72.4182L180.468 72.4182Z" fill="#000004"/>
<path d="M178.815 73.4104C178.815 73.4104 176.966 70.2656 173.669 70.2176C170.372 70.1696 166.182 71.9422 167.091 77.9844C167.906 83.1603 174.456 84.1202 177.385 81.8411C182.35 77.9775 178.816 73.4093 178.816 73.4093L178.815 73.4104Z" fill="#877F72"/>
<path d="M166.535 36.1857C166.535 36.1857 164.113 32.0643 159.792 32.0017C155.471 31.9391 149.979 34.2617 151.172 42.1805C152.24 48.9635 160.823 50.2209 164.66 47.2342C171.167 42.1704 166.536 36.1858 166.536 36.1858L166.535 36.1857Z" fill="#000004"/>
<path d="M164.885 37.1799C164.885 37.1799 163.037 34.0352 159.74 33.9872C156.443 33.9392 152.252 35.7118 153.161 41.7539C153.977 46.9298 160.526 47.8897 163.455 45.6106C168.42 41.7471 164.886 37.1788 164.886 37.1788L164.885 37.1799Z" fill="#877F72"/>
</g>
<rect x="2.10506" y="2.08553" width="224.441" height="224.437" rx="22.4487" stroke="black" stroke-width="3.17106"/>
<defs>
<clipPath id="clip0_20887_55997">
<rect x="0.519531" y="0.5" width="227.612" height="227.608" rx="24.0342" fill="white"/>
</clipPath>
</defs>
</svg>

<svg xmlns="http://www.w3.org/2000/svg" fill="none" viewBox="0 0 229 229"><g clip-path="url(#a)"><path fill="#7EC7E8" d="M228.135.5H.527v227.607h227.608z"/><path fill="#fff" d="M208.872 145.852c-.267 0-.53.018-.793.04.026-.338.044-.677.044-1.022 0-6.983-5.66-12.643-12.643-12.643-4.485 0-8.421 2.336-10.666 5.857a13 13 0 0 0-1.378-.076c-6.535 0-11.911 4.954-12.58 11.31a9 9 0 0 0-.462-.014c-5.108 0-9.249 4.142-9.249 9.25a9.25 9.25 0 0 0 9.249 9.25 9.2 9.2 0 0 0 4.737-1.316c2.412 1.799 5.759 2.805 9.388 2.565 3.809-.251 7.128-1.824 9.28-4.097a9.2 9.2 0 0 0 6.667 2.847 9.22 9.22 0 0 0 7.26-3.532c.377.047.757.079 1.146.079a9.25 9.25 0 1 0 0-18.499z" opacity=".33"/><path fill="#fff" d="M135.77 58.855a6.342 6.342 0 0 0-7.591-6.218 8.69 8.69 0 0 0-7.255-4.217 8.705 8.705 0 0 0-8.036-5.357c-3.621 0-6.738 2.225-8.043 5.383a8.7 8.7 0 0 0-7.935 7.67 8.69 8.69 0 0 0-4.039 7.34 8.704 8.704 0 0 0 8.705 8.704 8.7 8.7 0 0 0 2.974-.533 6.315 6.315 0 0 0 7.639.739 8.65 8.65 0 0 0 4.929 1.534 8.67 8.67 0 0 0 6.463-2.89 6.342 6.342 0 0 0 8.87-5.815c0-.251-.02-.498-.047-.742a6.34 6.34 0 0 0 3.367-5.599z" opacity=".46"/><path fill="#fff" d="M35.801 136.125q-.145.001-.285.014a4.544 4.544 0 0 0-8.363-2.807 4.55 4.55 0 0 0-5.017 4.039 3.325 3.325 0 1 0-.166 6.646c.623 0 1.204-.175 1.702-.473.867.647 2.07 1.008 3.375.922 1.37-.091 2.563-.655 3.337-1.473a3.314 3.314 0 0 0 5.007-.247q.203.028.412.029a3.325 3.325 0 1 0 0-6.65z" opacity=".33"/><path fill="#3C3C3C" d="M65.365 116.542c-26.583 3.804-29.395 3.235-63.975-13.465-36.76-29.156-84.16-75.418-84.16-75.418l57.81-59.709 54.701-38.165L81.462-.533c20.564 31.586 23.088 41.858 25.533 54.306 8.838 47.549-28.16 60.087-41.628 62.768z"/><path fill="#000004" d="M28.926 34.298s-11.612 6.825-11.79 19.003c-.176 12.177 6.37 27.652 28.685 24.294 19.115-3.009 22.658-27.197 14.242-38.013-14.27-18.337-31.137-5.284-31.137-5.284"/><path fill="#877F72" d="M30.572 37.031s-9.995 5.875-10.147 16.357 5.482 23.8 24.689 20.91C61.566 71.71 64.616 50.89 57.372 41.582c-12.282-15.784-26.8-4.549-26.8-4.549"/><path fill="#000004" d="M78.793 41.985s-4.121 2.422-4.184 6.743 2.26 9.813 10.179 8.62c6.783-1.068 8.04-9.651 5.054-13.488-5.064-6.507-11.049-1.876-11.049-1.876z"/><path fill="#877F72" d="M79.791 43.635s-3.144 1.848-3.192 5.145 1.724 7.488 7.766 6.579c5.176-.816 6.136-7.365 3.857-10.294-3.864-4.965-8.432-1.431-8.432-1.431z"/><path fill="#000004" d="M74.063 74.621s-4.122 2.422-4.184 6.743 2.26 9.812 10.178 8.62c6.783-1.068 8.04-9.651 5.054-13.489-5.064-6.507-11.048-1.875-11.048-1.875z"/><path fill="#877F72" d="M75.057 76.27s-3.145 1.85-3.193 5.146c-.048 3.297 1.725 7.488 7.767 6.579 5.176-.816 6.136-7.365 3.857-10.294-3.864-4.965-8.432-1.431-8.432-1.431"/><path fill="#000004" d="M37.828 88.552s-4.121 2.421-4.184 6.743c-.062 4.32 2.26 9.812 10.179 8.62 6.783-1.068 8.04-9.652 5.054-13.489-5.064-6.507-11.049-1.876-11.049-1.876z"/><path fill="#877F72" d="M38.826 90.202s-3.144 1.848-3.192 5.145 1.724 7.488 7.766 6.578c5.176-.815 6.136-7.364 3.857-10.294-3.863-4.965-8.432-1.43-8.432-1.43z"/><path fill="#000100" d="M103.498 28.998c27.153 49.284-5.796 85.25-33.819 90.458C7.167 131.073-33.004 74.749-86.069 31.055l3.336-3.599s41.565 39.073 85.363 73.07c19.908 15.453 37.835 16.699 64.9 14.251 10.217-1.498 48.306-13.455 39.468-61.002-4.037-25.947-43.072-75.914-77.387-123.996l3.25-2.484s60.15 79.18 70.637 101.703"/><path fill="#9E6D4C" d="m190.598 230.82 4.909 62.455-160.906-6.46 8.063-60.907c20.26-109.487 64.935-106.148 75.276-106.685 60.325-1.404 72.658 111.597 72.658 111.597"/><path fill="#000004" d="M108.455 208.921s12.335 5.413 22.308-1.579c9.972-6.991 18.679-21.361 2.884-37.479-13.636-13.728-35.315-2.429-39.15 10.728-6.502 22.307 13.958 28.33 13.958 28.33"/><path fill="#877F72" d="M109.707 205.986s10.616 4.659 19.2-1.359 16.078-18.386 2.483-32.259c-11.737-11.817-30.397-2.091-33.698 9.233-5.596 19.2 12.015 24.384 12.015 24.384z"/><path fill="#000004" d="M85.47 164.002s4.377 1.921 7.916-.56 6.628-7.581 1.023-13.299c-4.839-4.872-12.531-.863-13.892 3.806-2.306 7.915 4.953 10.053 4.953 10.053"/><path fill="#877F72" d="M86.226 162.232s3.34 1.466 6.04-.427c2.7-1.892 5.06-5.784.782-10.148-3.692-3.718-9.563-.658-10.602 2.904-1.76 6.04 3.78 7.671 3.78 7.671"/><path fill="#000004" d="M114.685 148.713s4.377 1.921 7.916-.56 6.628-7.581 1.023-13.299c-4.839-4.872-12.531-.863-13.892 3.806-2.307 7.915 4.953 10.053 4.953 10.053"/><path fill="#877F72" d="M115.437 146.943s3.34 1.466 6.041-.427c2.7-1.892 5.058-5.784.781-10.149-3.692-3.717-9.563-.658-10.602 2.905-1.76 6.04 3.78 7.671 3.78 7.671"/><path fill="#000004" d="M147.2 169.916s4.377 1.921 7.917-.56 6.628-7.581 1.023-13.299c-4.839-4.871-12.532-.863-13.892 3.806-2.307 7.915 4.952 10.053 4.952 10.053"/><path fill="#877F72" d="M147.953 168.145s3.339 1.466 6.04-.427c2.7-1.892 5.059-5.784.781-10.148-3.692-3.718-9.563-.658-10.601 2.904-1.76 6.04 3.78 7.671 3.78 7.671"/><path fill="#060000" d="M195.954 230.998c2.712 37.574 3.445 62.219 3.445 62.219l-3.955-.131-4.846-62.266s-12.333-113.001-72.659-111.597c-10.34.537-55.016-2.802-75.276 106.685l-7.842 60.766-6.06-.202 8.937-60.729s14.26-95.354 66.558-107.855a49.3 49.3 0 0 1 9.793-1.315c6.373-.105 14.188-.469 22.637 2.392 19.331 6.546 48.747 35.446 59.268 112.033"/><path fill="#000" d="M143.389 76.113c-25.12-34.472 31.267-108.591 62.315-141.639l-8.164-6.03C168.482-37.1 113.765 23.865 131.258 69.085c18.977 44.693 62.107 44.051 97.9 34.642 35.793-9.41 71.34-72.701 84.639-103.17-.566-.307-2.493-1.235-5.677-2.493-38.97 72.144-56.168 87.412-68.767 93.906-65.375 26.052-83.036 2.426-95.964-15.859"/><path fill="#EFF2E1" d="M257.362-32.66 307.72-1.85s-36.7 76.306-71.334 96.603c-13.486 7.039-41.298 16.11-72.084 3.702-10.867-5.37-42.973-28.705-26.759-71.207 5.946-14.49 13.043-28.366 24.203-43.547l40.287-51.076z"/><path fill="#000004" d="M220.787 27.276s-6.825-11.613-19.002-11.79c-12.178-.176-27.653 6.37-24.295 28.684 3.009 19.115 27.198 22.66 38.013 14.243 18.338-14.27 5.284-31.137 5.284-31.137"/><path fill="#877F72" d="M218.053 28.922s-5.875-9.995-16.356-10.147-23.801 5.482-20.911 24.689c2.589 16.452 23.409 19.502 32.718 12.258 15.783-12.282 4.548-26.8 4.548-26.8z"/><path fill="#000004" d="M213.101 77.146s-2.421-4.122-6.743-4.184c-4.321-.063-9.812 2.26-8.62 10.179 1.068 6.782 9.652 8.04 13.489 5.053 6.507-5.064 1.875-11.048 1.875-11.048z"/><path fill="#877F72" d="M211.448 78.139s-1.849-3.145-5.146-3.193-7.488 1.725-6.578 7.767c.815 5.176 7.365 6.136 10.294 3.857 4.965-3.864 1.431-8.432 1.431-8.432z"/><path fill="#000004" d="M180.468 72.418s-2.421-4.121-6.742-4.184c-4.322-.062-9.813 2.26-8.621 10.179 1.068 6.783 9.652 8.04 13.489 5.054 6.507-5.064 1.876-11.049 1.876-11.049z"/><path fill="#877F72" d="M178.815 73.41s-1.849-3.144-5.146-3.192-7.487 1.724-6.578 7.766c.815 5.176 7.365 6.136 10.294 3.857 4.965-3.863 1.431-8.432 1.431-8.432z"/><path fill="#000004" d="M166.535 36.186s-2.422-4.122-6.743-4.184-9.813 2.26-8.62 10.179c1.068 6.783 9.651 8.04 13.488 5.053 6.507-5.064 1.876-11.048 1.876-11.048z"/><path fill="#877F72" d="M164.885 37.18s-1.848-3.145-5.145-3.193-7.488 1.725-6.579 7.767c.816 5.176 7.365 6.136 10.294 3.857 4.965-3.864 1.431-8.432 1.431-8.432z"/></g><rect width="224.441" height="224.437" x="2.105" y="2.086" stroke="#000" stroke-width="3.171" rx="22.449"/><defs><clipPath id="a"><rect width="227.612" height="227.608" x=".52" y=".5" fill="#fff" rx="24.034"/></clipPath></defs></svg>
